lib/brands/icons/swift-alt.svg

<svg xmlns="http://www.w3.org/2000/svg" fill="none" aria-hidden="true" viewBox="0 0 48 48"><g id="swift-alt-Icon"><g id="Group"><path id="Vector" fill="url(#paint0_linear_94_18736)" d="M13.9948 6C14.2057 6 33.5838 6 33.9354 6C34.9057 6 35.8479 6.15469 36.762 6.47813C38.0838 6.95625 39.2792 7.8 40.1792 8.89688C41.0932 9.99375 41.6979 11.3438 41.9088 12.75C41.9932 13.2703 42.0073 13.7906 42.0073 14.3109C42.0073 14.7891 42.0073 31.6359 42.0073 32.3953C42.0073 32.8453 42.0073 33.3094 42.0073 33.7594C42.0073 34.3781 41.9792 35.0109 41.8526 35.6156C41.5713 37.0078 40.9104 38.3156 39.9542 39.3703C39.012 40.425 37.7745 41.2125 36.4385 41.6344C35.6229 41.8875 34.7792 42 33.9213 42C33.5417 42 13.9385 42 13.6432 41.9859C12.2088 41.9156 10.7885 41.4516 9.59322 40.65C8.42604 39.8625 7.46979 38.7656 6.85104 37.5C6.31666 36.4172 6.04947 35.2078 6.04947 33.9984C6.04947 33.7172 6.04947 14.2828 6.04947 14.0016C6.02135 12.8063 6.27447 11.625 6.79479 10.5563C7.39947 9.29063 8.34166 8.17969 9.50885 7.39219C10.7042 6.57656 12.1104 6.09844 13.5448 6.02813C13.6854 6 13.8401 6 13.9948 6Z"/><path id="Vector_2" fill="url(#paint1_linear_94_18736)" d="M36.3682 35.4469C36.2416 35.25 36.101 35.0531 35.9463 34.8703C35.5947 34.4484 35.1869 34.0828 34.7369 33.7734C34.1744 33.3937 33.5135 33.1547 32.8385 33.1266C32.3604 33.0984 31.8822 33.1828 31.4322 33.3516C30.9822 33.5063 30.5463 33.7313 30.1244 33.9563C29.6322 34.2094 29.14 34.4625 28.6197 34.6734C28.001 34.9266 27.3541 35.1234 26.6932 35.2641C25.8635 35.4188 25.0197 35.475 24.19 35.4609C22.6854 35.4328 21.1807 35.2078 19.7463 34.7859C18.4807 34.4062 17.2713 33.8859 16.1322 33.225C15.1338 32.6484 14.2057 31.9875 13.3338 31.2422C12.6166 30.6234 11.9557 29.9625 11.3369 29.2594C10.915 28.7672 10.5072 28.2469 10.1275 27.7125C9.97285 27.5016 9.83223 27.2766 9.70566 27.0516L5.99316 23.0437V13.9734C5.99316 9.57188 9.55098 6 13.9525 6H21.0541L26.3135 11.3438C38.1822 19.4156 34.3432 28.3172 34.3432 28.3172C34.3432 28.3172 37.7182 32.1141 36.3682 35.4469Z"/><path id="Vector_3" fill="white" d="M26.3415 11.3438C38.2103 19.4156 34.3712 28.3172 34.3712 28.3172C34.3712 28.3172 37.7462 32.1281 36.3821 35.4609C36.3821 35.4609 34.9899 33.1266 32.6556 33.1266C30.4056 33.1266 29.0837 35.4609 24.5556 35.4609C14.4728 35.4609 9.70557 27.0375 9.70557 27.0375C18.7899 33.0141 24.9915 28.7812 24.9915 28.7812C20.8993 26.4047 12.1946 15.0422 12.1946 15.0422C19.7743 21.4969 23.0509 23.1984 23.0509 23.1984C21.0962 21.5813 15.6118 13.6781 15.6118 13.6781C19.9993 18.1219 28.7181 24.3234 28.7181 24.3234C31.1931 17.4609 26.3415 11.3438 26.3415 11.3438Z"/></g></g><defs><linearGradient id="paint0_linear_94_18736" x1="27.409" x2="20.6074" y1="4.71542" y2="43.289" gradientUnits="userSpaceOnUse"><stop stop-color="#FAAE42"/><stop offset="1" stop-color="#EF3E31"/></linearGradient><linearGradient id="paint1_linear_94_18736" x1="24.3604" x2="19.3825" y1="6.58167" y2="34.813" gradientUnits="userSpaceOnUse"><stop stop-color="#E39F3A"/><stop offset="1" stop-color="#D33929"/></linearGradient></defs></svg>

<svg xmlns="http://www.w3.org/2000/svg" fill="none" aria-hidden="true" viewBox="0 0 48 48"><path fill="url(#a)" d="M13.995 6h19.94c.97 0 1.913.155 2.827.478a7.943 7.943 0 0 1 3.417 2.419 7.884 7.884 0 0 1 1.73 3.853c.084.52.098 1.04.098 1.56v19.45c0 .62-.028 1.252-.155 1.857a7.96 7.96 0 0 1-1.898 3.754 7.961 7.961 0 0 1-3.516 2.264 8.455 8.455 0 0 1-2.517.366c-.38 0-19.983 0-20.278-.014a8.024 8.024 0 0 1-4.05-1.336 8.127 8.127 0 0 1-2.742-3.15 7.936 7.936 0 0 1-.802-3.502V14.002a7.465 7.465 0 0 1 .746-3.446 7.985 7.985 0 0 1 2.714-3.164 7.877 7.877 0 0 1 4.035-1.364C13.685 6 13.84 6 13.994 6Z"/><path fill="url(#b)" d="M36.368 35.447a5.48 5.48 0 0 0-.422-.577 5.971 5.971 0 0 0-1.21-1.097 3.702 3.702 0 0 0-1.898-.646 3.435 3.435 0 0 0-1.406.225c-.45.154-.886.38-1.308.604-.492.253-.984.506-1.505.717-.618.254-1.265.45-1.926.591a12.51 12.51 0 0 1-2.503.197 16.915 16.915 0 0 1-4.444-.675 16.81 16.81 0 0 1-3.614-1.561 18.637 18.637 0 0 1-2.799-1.983 20.462 20.462 0 0 1-1.996-1.983 21.706 21.706 0 0 1-1.21-1.547 6.553 6.553 0 0 1-.422-.66l-3.712-4.008v-9.07C5.993 9.571 9.55 6 13.953 6h7.1l5.26 5.344c11.869 8.072 8.03 16.973 8.03 16.973s3.375 3.797 2.025 7.13Z"/><path fill="#fff" d="M26.341 11.344c11.87 8.072 8.03 16.973 8.03 16.973s3.375 3.811 2.011 7.144c0 0-1.392-2.334-3.727-2.334-2.25 0-3.571 2.334-8.1 2.334-10.082 0-14.85-8.423-14.85-8.423 9.085 5.976 15.286 1.743 15.286 1.743-4.092-2.376-12.796-13.739-12.796-13.739 7.58 6.455 10.856 8.156 10.856 8.156-1.955-1.617-7.44-9.52-7.44-9.52C20 18.122 28.719 24.323 28.719 24.323c2.475-6.862-2.377-12.98-2.377-12.98Z"/><defs><linearGradient id="a" x1="27.409" x2="20.607" y1="4.715" y2="43.289" gradientUnits="userSpaceOnUse"><stop stop-color="#FAAE42"/><stop offset="1" stop-color="#EF3E31"/></linearGradient><linearGradient id="b" x1="24.36" x2="19.382" y1="6.582" y2="34.813" gradientUnits="userSpaceOnUse"><stop stop-color="#E39F3A"/><stop offset="1" stop-color="#D33929"/></linearGradient></defs></svg>
